src/assets/LogoAccent.svg

<svg width="43" height="43" viewBox="0 0 43 43" fill="none" xmlns="http://www.w3.org/2000/svg">
<path fill-rule="evenodd" clip-rule="evenodd" d="M21.5 43C33.3741 43 43 33.3741 43 21.5C43 9.62588 33.3741 0 21.5 0C9.62588 0 0 9.62588 0 21.5C0 33.3741 9.62588 43 21.5 43Z" fill="url(#paint0_linear)"/>
<path fill-rule="evenodd" clip-rule="evenodd" d="M21.5 43C33.3741 43 43 33.3741 43 21.5C43 9.62588 33.3741 0 21.5 0C9.62588 0 0 9.62588 0 21.5C0 33.3741 9.62588 43 21.5 43Z" fill="url(#paint1_linear)"/>
<path d="M21.5004 24.7338C30.1887 24.7338 34.7798 22.4594 35.1373 22.2736C35.149 22.2665 35.1537 22.2548 35.1584 22.243C35.1725 21.9984 35.182 21.7515 35.182 21.5021C35.182 21.2528 35.1725 21.0059 35.1584 20.7613C35.1561 20.7495 35.1514 20.7354 35.1373 20.7307C34.7798 20.5449 30.1887 18.2705 21.5004 18.2705C12.8121 18.2705 8.22104 20.5425 7.86354 20.7283C7.85178 20.7354 7.84707 20.7472 7.84237 20.7589C7.82826 21.0059 7.81885 21.2505 7.81885 21.4998C7.81885 21.7491 7.82826 21.9961 7.84237 22.2407C7.84472 22.2524 7.84942 22.2665 7.86354 22.2713C8.22104 22.4571 12.8121 24.7338 21.5004 24.7338Z" fill="white"/>
<path d="M21.5004 12.8397C16.032 12.8397 12.1912 13.7405 10.0062 14.4532C9.09366 15.7938 8.43275 17.3038 8.08936 18.9243C8.09876 18.9314 8.11288 18.9337 8.12464 18.929C9.24183 18.4116 13.7294 16.5935 21.5004 16.5935C29.2714 16.5935 33.759 18.4116 34.8762 18.929C34.888 18.9337 34.9021 18.9314 34.9115 18.9243C34.5681 17.3038 33.9072 15.7962 32.9946 14.4532C30.8073 13.7405 26.9688 12.8397 21.5004 12.8397Z" fill="white"/>
<path d="M11.7866 30.6611C14.2656 33.039 17.7019 34.5113 21.5004 34.5113C25.2988 34.5113 28.7351 33.039 31.2141 30.6611C28.9468 31.2327 25.7081 31.7642 21.5004 31.7642C17.2926 31.7642 14.0539 31.2327 11.7866 30.6611Z" fill="white"/>
<path d="M11.7866 12.3387C14.2656 9.96088 17.7019 8.48853 21.5004 8.48853C25.2988 8.48853 28.7351 9.96088 31.2141 12.3387C28.9468 11.7672 25.7081 11.2357 21.5004 11.2357C17.2926 11.2357 14.0539 11.7672 11.7866 12.3387Z" fill="white"/>
<path d="M21.5004 30.125C16.032 30.125 12.1912 29.2242 10.0062 28.5115C9.09366 27.1709 8.43275 25.6609 8.08936 24.0404C8.09876 24.0333 8.11288 24.0309 8.12464 24.0357C9.24183 24.5531 13.7294 26.3712 21.5004 26.3712C29.2714 26.3712 33.759 24.5531 34.8762 24.0357C34.888 24.0309 34.9021 24.0333 34.9115 24.0404C34.5681 25.6609 33.9072 27.1685 32.9946 28.5115C30.8073 29.2265 26.9688 30.125 21.5004 30.125Z" fill="white"/>
<defs>
<linearGradient id="paint0_linear" x1="13.3344" y1="60.4102" x2="55.5081" y2="27.0927" gradientUnits="userSpaceOnUse">
<stop stop-color="#FFB36D"/>
<stop offset="1" stop-color="#FF8888"/>
</linearGradient>
<linearGradient id="paint1_linear" x1="-14.3062" y1="2.68452" x2="68.0939" y2="50.4324" gradientUnits="userSpaceOnUse">
<stop stop-color="#FFD9A2"/>
<stop offset="1" stop-color="#FFAE8D"/>
</linearGradient>
</defs>
</svg>

<svg width="43" height="43" fill="none" xmlns="http://www.w3.org/2000/svg"><path fill-rule="evenodd" clip-rule="evenodd" d="M21.5 43C33.374 43 43 33.374 43 21.5S33.374 0 21.5 0 0 9.626 0 21.5 9.626 43 21.5 43z" fill="url(#paint0_linear)"/><path fill-rule="evenodd" clip-rule="evenodd" d="M21.5 43C33.374 43 43 33.374 43 21.5S33.374 0 21.5 0 0 9.626 0 21.5 9.626 43 21.5 43z" fill="url(#paint1_linear)"/><path d="M21.5 24.734c8.689 0 13.28-2.275 13.637-2.46.012-.008.017-.02.021-.031.014-.245.024-.491.024-.74 0-.25-.01-.497-.024-.742-.002-.011-.007-.026-.02-.03-.358-.186-4.95-2.46-13.638-2.46-8.688 0-13.279 2.271-13.636 2.457-.012.007-.017.02-.022.03-.014.248-.023.492-.023.742s.01.496.023.74c.003.012.007.027.022.031.357.186 4.948 2.463 13.636 2.463z" fill="#fff"/><path d="M21.5 12.84c-5.468 0-9.309.9-11.494 1.613a12.573 12.573 0 00-1.917 4.471c.01.007.024.01.036.005 1.117-.517 5.604-2.335 13.375-2.335s12.259 1.818 13.376 2.335a.037.037 0 00.035-.005 12.59 12.59 0 00-1.916-4.47c-2.188-.713-6.026-1.614-11.495-1.614zM11.787 30.661c2.479 2.378 5.915 3.85 9.713 3.85 3.799 0 7.235-1.472 9.714-3.85-2.267.572-5.506 1.103-9.714 1.103-4.207 0-7.446-.531-9.713-1.103zM11.787 12.339c2.479-2.378 5.915-3.85 9.713-3.85 3.799 0 7.235 1.472 9.714 3.85-2.267-.572-5.506-1.103-9.714-1.103-4.207 0-7.446.531-9.713 1.103zM21.5 30.125c-5.468 0-9.309-.9-11.494-1.613A12.573 12.573 0 018.09 24.04a.037.037 0 01.036-.004c1.117.517 5.604 2.335 13.375 2.335s12.259-1.818 13.376-2.335a.037.037 0 01.035.004 12.59 12.59 0 01-1.916 4.472c-2.188.715-6.026 1.613-11.495 1.613z" fill="#fff"/><defs><linearGradient id="paint0_linear" x1="13.334" y1="60.41" x2="55.508" y2="27.093" gradientUnits="userSpaceOnUse"><stop stop-color="#FFB36D"/><stop offset="1" stop-color="#F88"/></linearGradient><linearGradient id="paint1_linear" x1="-14.306" y1="2.685" x2="68.094" y2="50.432" gradientUnits="userSpaceOnUse"><stop stop-color="#FFD9A2"/><stop offset="1" stop-color="#FFAE8D"/></linearGradient></defs></svg>
